!!!COM: Giovanni Maria Nanino
!!!OPR: Regole di contrappunto di Gio. M. Nanino e del suo fratello minore.
!!!OTL: [Didactic example]
!!!YOR: MS ca. 1580-ca.1610.
!!!YOR: Bologna, Civico Museo Bibliografico Musicale.
!!!ONB: Reprinted (without acknowledgement) by Rocco Rodio "Regole di musica"
!!!ONB: [3rd edition].  Naples: Gio. Giocomo Carlino & Costantino Vitale, 1619.
!!!ONB: Encoded from Rodio, p. 12.
!!!ONB: Canon at the fourth above after a semibreve with the cantus firmus below.
**kern	**kern	**kern
*k[]	*M4/4	*M4/4
*M4/4	*k[]	*k[]
*CF	*guida	*conseq
=1	=1	=1
1A	1r	1r
=2	=2	=2
1E	2r	1r
.	2e	.
=3	=3	=3
1D	2a	2r
.	2a	2a
=4	=4	=4
1F	2f	2dd
.	2d	2dd
=5	=5	=5
1E	1e	2b
.	.	2g
=6	=6	=6
1D	2r	1a
.	[2a	.
=7	=7	=7
1F	2a]	2r
.	2f	[2dd
=8	=8	=8
1G	4b-	2dd]
.	4a	.
.	4g	2b
.	4f	.
=9	=9	=9
1A	1e	4ee
.	.	4dd
.	.	4cc
.	.	4b
=10	=10	=10
1c	2r	1a
.	[2a	.
=11	=11	=11
1B	2a]	2r
.	2g	[2dd
=12	=12	=12
1A	[1e	2dd]
.	.	2cc
=13	=13	=13
1c	2e]	[1a
.	2e	.
=14	=14	=14
1d	1f	2a]
.	.	2a
=15	=15	=15
1G	[1g	1b
=16	=16	=16
1A	2g]	[1cc
.	2f	.
=17	=17	=17
1G	1e	2cc]
.	.	2b
=18	=18	=18
1d	1r	1a
=19	=19	=19
1c	1e	1r
=20	=20	=20
1d	2f#	1a
.	2f#	.
=21	=21	=21
1G	1g	2b
.	.	2b
=22	=22	=22
1F	2r	1cc
.	[2a	.
=23	=23	=23
1B-	2a]	2r
.	2g	[2dd
=24	=24	=24
1A	2a	2dd]
.	2a	2cc
=25	=25	=25
1D	1f	2dd
.	.	2dd
=26	=26	=26
1E	2r	1b
.	[2g	.
=27	=27	=27
1G	4g]	2r
.	4f	.
.	4e	[2cc
.	4d	.
=28	=28	=28
1A	2e	4cc]
.	.	4b
.	2A	4a
.	.	4g
=29	=29	=29
1c	1a	2a
.	.	2d
=30	=30	=30
1B	2g	1dd
.	[2a	.
=31	=31	=31
1A	2a]	2cc
.	2r	[2dd
=32	=32	=32
1G	1r	2dd]
.	.	2r
=33	=33	=33
1F	1d	1r
=34	=34	=34
1E	2c	1g
.	4B	.
.	4c	.
=35	=35	=35
1D	1d	2f
.	.	4e
.	.	4f
=36	=36	=36
1E	2c#	1g
.	[2d	.
=37	=37	=37
1D	1d]	1f
==	==	==
*-	*-	*-
!!!CDT: 1545///-1607/3/11
!!!OCY: Italia
!!!ODT: 1586
!!!AFR: cantus firmus canon
!!!AST: polyphony
!!!AMT: simple quadruple
!!!AIN: vox
!!!YEP: David Huron and Denis Collins
!!!YEN: Canada
!!!EEV: 1.0
!!!RDT: 1995 July 23
!!!YED: 1995 August 31
